!!!OTL: WAS KANN SCHOENER SEYN, WAS KANN MEHR ERFREUN
!!!ARE: Europa, Mitteleuropa, Deutschland, Emmenthal
!!!SCT: Z0315
!!!YEM: Copyright 1995, estate of Helmut Schaffrath.
**kern
*ICvox
*Ivox
*M3/4
*k[f#]
*G:
{8.g
16a
16b
16cc
16b
16a
4g
=1
8.b
16cc
16dd
16ee
16dd
16cc
4b}
=2
{8dd
8dd
8cc
8cc
8b
8b
=3
8.a
16cc
2b}
=4
{8.g
16a
16b
16cc
16b
16a
4g
=5
8.b
16cc
16dd
16ee
16dd
16cc
4b}
=6
{8dd
8dd
8cc
8cc
8b
8b
=7
8.a
16cc
2b}
=8
{8.dd
16cc
4b
8.b
16dd
=9
8cc
8b
4a
4a}
=10
{8.dd
16cc
[4b
8.b]
16dd
=11
8cc
8b
4a
4a}
=12
{8.g
16a
16b
16cc
16b
16a
4g
=13
8.b
16cc
16dd
16ee
16dd
16cc
4b}
=14
{8dd
8dd
8cc
8cc
8b
8b
=15
8.a
16cc
2b}
=16
{8.dd
16cc
4b
8.b
16dd
=17
8cc
8b
4a
4a}
=18
{8.dd
16cc
[4b
8.b]
16dd
=19
8cc
8b
4a
4a}
=20
{8.g
16a
16b
16cc
16b
16a
4g
=21
8.b
16cc
16dd
16ee
16dd
16cc
4b}
=22
{8dd
8dd
8cc
8cc
8b
8b
=23
8.a
16cc
2b}
==
!!!AGN: Lyrisches Lied, Romanze
!!!ONB: ESAC (Essen Associative Code) Database: ZUCCAL
!!!AMT: simple triple
!!!AIN: vox
!!!EED: Helmut Schaffrath
!!!EEV: 1.0
*-
